icons/alarm-fill.svg

<svg xmlns="http://www.w3.org/2000/svg" width="24" height="24" fill="none"><g clip-path="url(#a)"><g><path fill="#121212" d="M12 22C10.8181 22 9.64779 21.7672 8.55586 21.3149C7.46393 20.8626 6.47178 20.1997 5.63605 19.364C4.80032 18.5282 4.13739 17.5361 3.68509 16.4442C3.2328 15.3522 3.00001 14.1819 3.00001 13C3.00001 11.8181 3.2328 10.6478 3.68509 9.55586C4.13739 8.46393 4.80032 7.47178 5.63605 6.63605C6.47178 5.80032 7.46393 5.13739 8.55586 4.68509C9.64779 4.2328 10.8181 4.00001 12 4.00001C14.387 4.00001 16.6761 4.94822 18.364 6.63605C20.0518 8.32388 21 10.6131 21 13C21 15.387 20.0518 17.6761 18.364 19.364C16.6761 21.0518 14.387 22 12 22ZM13 13V8.00001H11V15H16V13H13ZM1.74701 6.28201L5.28201 2.74701L6.69701 4.16101L3.16001 7.69701L1.74701 6.28201ZM18.717 2.74701L22.253 6.28201L20.839 7.69701L17.303 4.16101L18.718 2.74701H18.717Z"/></g></g><defs><clipPath id="a"><rect width="24" height="24" fill="white"/></clipPath></defs></svg>

<svg width="24" height="24" fill="none" xmlns="http://www.w3.org/2000/svg"><g clip-path="url(#a)"><path d="M12 22a9 9 0 1 1 0-18 9 9 0 0 1 0 18Zm1-9V8h-2v7h5v-2h-3ZM1.747 6.282l3.535-3.535 1.415 1.414L3.16 7.697 1.747 6.282Zm16.97-3.535 3.536 3.535-1.414 1.415-3.536-3.536 1.415-1.414h-.001Z" /></g><defs><clipPath id="a"><path fill="#fff" d="M0 0h24v24H0z"/></clipPath></defs></svg>
